brandFactory_export/1.Light/Abrir mail correo_1Light.svg

<?xml version="1.0" encoding="UTF-8"?>
<svg width="24px" height="24px" viewBox="0 0 24 24" version="1.1" xmlns="http://www.w3.org/2000/svg" xmlns:xlink="http://www.w3.org/1999/xlink">
    <title>1.Light/Abrir mail correo_1Light</title>
    <g id="Symbols" stroke="none" stroke-width="1" fill="none" fill-rule="evenodd">
        <g id="1.Light/Abrir-mail-correo_1Light" fill="#5CB615" fill-rule="nonzero">
            <path d="M22.4470588,22.2705882 C22.2453782,22.512605 21.8890756,22.6403361 21.3915966,22.6504202 C20.4134454,22.6672269 15.3176471,22.6672269 12.3596639,22.6638655 L12.312605,22.6638655 C7.9092437,22.6672269 3.10252101,22.6638655 2.29915966,22.6504202 C1.80168067,22.6403361 1.4487395,22.5159664 1.24705882,22.2739496 C0.954621849,21.9243697 1.03193277,21.4067227 1.03865546,21.3226891 L1.02857143,10.5831933 L9.81176471,16.1260504 C9.84537815,16.1495798 10.6117647,16.7008403 11.6907563,16.7008403 C12.3260504,16.7008403 12.9378151,16.512605 13.4991597,16.1462185 L22.6621849,10.4285714 L22.6588235,21.4067227 C22.6588235,21.4134454 22.7327731,21.9243697 22.4470588,22.2705882 M1.45210084,8.1092437 L10.5344538,2.36806723 C10.9310924,2.12268908 11.3882353,1.98823529 11.8521008,1.98487395 C12.5983193,1.98487395 13.1495798,2.36134454 13.1764706,2.37815126 L22.2184874,8.09579832 C22.497479,8.29411765 22.6487395,8.70084034 22.6621849,9.25882353 L22.6621849,9.28571429 C22.6453782,9.29243697 22.6252101,9.29579832 22.6084034,9.30588235 L12.9647059,15.3193277 C12.5613445,15.5848739 12.1310924,15.7193277 11.6907563,15.7193277 C10.9478992,15.7193277 10.4,15.3361345 10.3663866,15.3159664 L1.02521008,9.42352941 L1.02521008,9.26890756 C1.03865546,8.70084034 1.19327731,8.29411765 1.45210084,8.1092437 M23.6369748,21.3260504 L23.6470588,9.2487395 C23.6201681,8.12605042 23.1663866,7.56806723 22.7697479,7.28571429 L13.7277311,1.56806723 C13.1630252,1.20168067 12.507563,1.00672269 11.8352941,1.00336134 C10.7630252,1.00336134 9.99327731,1.54453782 9.98319328,1.5512605 L1.05546218,7.19495798 L0.897478992,7.29579832 C0.521008403,7.56470588 0.0672268908,8.11932773 0.0403361345,9.25546218 L0.0571428571,21.2420168 C0.0403361345,21.3394958 -0.0907563025,22.210084 0.480672269,22.8957983 C0.87394958,23.3697479 1.4789916,23.6151261 2.28235294,23.6285714 C2.9210084,23.6386555 5.87226891,23.6420168 9.01848739,23.6420168 L12.312605,23.6420168 L12.312605,23.1512605 L12.3630252,23.6420168 C15.3176471,23.6453782 20.4235294,23.6453782 21.4084034,23.6285714 C22.2084034,23.6151261 22.8134454,23.3663866 23.2067227,22.8957983 C23.7781513,22.210084 23.6470588,21.3394958 23.6369748,21.3260504" id="Abrir-mail-correo_1Light"></path>
        </g>
    </g>
</svg>

<svg width="24" height="24" viewBox="0 0 24 24" xmlns="http://www.w3.org/2000/svg"><path d="M22.447 22.27c-.202.243-.558.37-1.055.38-.979.017-6.074.017-9.032.014h-.047c-4.404.003-9.21 0-10.014-.014-.497-.01-.85-.134-1.052-.376-.292-.35-.215-.867-.208-.951l-.01-10.74 8.783 5.543c.033.024.8.575 1.879.575.635 0 1.247-.188 1.808-.555l9.163-5.717-.003 10.978c0 .006.074.517-.212.864M1.452 8.109l9.082-5.74c.397-.246.854-.38 1.318-.384.746 0 1.298.376 1.324.393l9.042 5.718c.28.198.43.605.444 1.163v.027c-.017.006-.037.01-.054.02l-9.643 6.013c-.404.266-.834.4-1.274.4-.743 0-1.291-.383-1.325-.403l-9.34-5.892v-.155c.013-.568.167-.975.426-1.16m22.185 13.217l.01-12.077c-.027-1.123-.48-1.68-.877-1.963l-9.042-5.718a3.505 3.505 0 00-1.893-.565c-1.072 0-1.842.542-1.852.548L1.055 7.195l-.158.1c-.376.27-.83.824-.857 1.96l.017 11.987c-.017.097-.148.968.424 1.654.393.474.998.72 1.801.733.639.01 3.59.013 6.736.013h3.295v-.49l.05.49c2.955.003 8.06.003 9.045-.013.8-.014 1.405-.263 1.799-.733.571-.686.44-1.557.43-1.57" fill="#5CB615" fill-rule="nonzero"/></svg>
